svgs/solid/toilet-paper-check.svg

<svg xmlns="http://www.w3.org/2000/svg" viewBox="0 0 640 512"><!--! Font Awesome Pro 6.1.2 by @fontawesome - https://fontawesome.com License - https://fontawesome.com/license (Commercial License) Copyright 2022 Fonticons, Inc. --><path d="M444.2 0C397.2 49.59 384 126.5 384 192C384 350.8 356.7 438.1 341.3 475.9C331.3 499.9 308.2 512 285.9 512H48.02C36.49 512 25.85 505.8 20.17 495.8C14.49 485.7 14.61 473.5 20.54 463.6C30.34 445.8 35.98 425.4 41.05 405.9C52.3 362.8 64.02 293.5 64.02 192C64.02 85.96 106.1 0 160 0L444.2 0zM291.3 187.3C297.6 181.1 297.6 170.9 291.3 164.7C285.1 158.4 274.9 158.4 268.7 164.7L207.1 225.4L179.3 196.7C173.1 190.4 162.9 190.4 156.7 196.7C150.4 202.9 150.4 213.1 156.7 219.3L196.7 259.3C202.9 265.6 213.1 265.6 219.3 259.3L291.3 187.3zM416 192C416 85.96 458.1 0 512 0C565 0 608 85.96 608 192C608 298 565 384 512 384C458.1 384 416 298 416 192zM512 256C529.7 256 544 227.3 544 192C544 156.7 529.7 128 512 128C494.3 128 480 156.7 480 192C480 227.3 494.3 256 512 256z"/></svg>

<svg xmlns="http://www.w3.org/2000/svg" viewBox="0 0 640 512"><!--! Font Awesome Pro 6.2.0 by @fontawesome - https://fontawesome.com License - https://fontawesome.com/license (Commercial License) Copyright 2022 Fonticons, Inc. --><path d="M444.2 0C397.2 49.6 384 126.5 384 192c0 158.8-27.3 247-42.7 283.9c-10 24-33.2 36.1-55.4 36.1H48c-11.5 0-22.2-6.2-27.8-16.2s-5.6-22.3 .4-32.2c9.8-17.7 15.4-38.2 20.5-57.7C52.3 362.8 64 293.5 64 192C64 86 107 0 160 0H444.2zM512 384c-53 0-96-86-96-192S459 0 512 0s96 86 96 192s-43 192-96 192zm0-128c17.7 0 32-28.7 32-64s-14.3-64-32-64s-32 28.7-32 64s14.3 64 32 64zM291.3 187.3c6.2-6.2 6.2-16.4 0-22.6s-16.4-6.2-22.6 0L208 225.4l-28.7-28.7c-6.2-6.2-16.4-6.2-22.6 0s-6.2 16.4 0 22.6l40 40c6.2 6.2 16.4 6.2 22.6 0l72-72z"/></svg>
